X:1
T: Mrs. Sellar's Favourite
C:
R:Jig
Q:180
K:G
M:6/8
L:1/16
|:B2|G4D2 D2B,2D2|G,4D2 G4B2|G2B2d2 g4B2|g4B2 A4B2|
G4D2 D2B,2D2|G,4D2 G4B2|G2B2d2 g4B2|B2A2F2 G4:|
|:B2|d2B2d2 g4g2|b4g2 d4B2|c2B2c2 d4B2|A2A2A2 A4G2|
|1G2B2d2 g4g2|b4g2 d4B2|c2B2c2 d4B2|G2G2G2 G4:|
|2B2d2B2 c2e2c2|d4B2 g4d2|b4g2 d4B2|G2G2G2 G4||
